src/assets/img/backup/backup-warning.svg

<?xml version="1.0" encoding="UTF-8" standalone="no"?>
<svg width="247px" height="247px" viewBox="0 0 247 247" version="1.1" xmlns="http://www.w3.org/2000/svg" xmlns:xlink="http://www.w3.org/1999/xlink">
    <!-- Generator: Sketch 39.1 (31720) - http://www.bohemiancoding.com/sketch -->
    <title>being-watched</title>
    <desc>Created with Sketch.</desc>
    <defs>
        <linearGradient x1="50%" y1="0%" x2="50%" y2="89.4673583%" id="linearGradient-1">
            <stop stop-color="#3950B5" offset="0%"></stop>
            <stop stop-color="#162360" offset="100%"></stop>
        </linearGradient>
        <linearGradient x1="50%" y1="0%" x2="50%" y2="100%" id="linearGradient-2">
            <stop stop-color="#9EB3F6" offset="0%"></stop>
            <stop stop-color="#647CE8" offset="100%"></stop>
        </linearGradient>
    </defs>
    <g id="Onboarding" stroke="none" stroke-width="1" fill="none" fill-rule="evenodd">
        <g id="0.5.a.1-–-Backup-Warning" transform="translate(-64.000000, -210.000000)">
            <g id="being-watched" transform="translate(64.000000, 210.000000)">
                <path d="M123.5,247 C191.707167,247 247,191.707167 247,123.5 C247,55.2928334 191.707167,1.42108547e-14 123.5,1.42108547e-14 C55.2928334,1.42108547e-14 1.42108547e-14,55.2928334 1.42108547e-14,123.5 C1.42108547e-14,191.707167 55.2928334,247 123.5,247 Z" id="Oval-2" fill="url(#linearGradient-1)" opacity="0.300000012"></path>
                <path d="M157.693521,46.9114761 C157.371158,45.8451979 156.16141,44.9808396 155.003028,45.000323 L114.123129,53.1444209 L91.810993,45.2164126 C90.6490687,45.2358961 89.43755,46.1020257 89.1151868,47.1700751 L74.3927551,96.5571737 L172.607245,96.5571737 L157.693521,46.9114761 L157.693521,46.9114761 Z M123.5,107.871766 C94.152554,107.871766 67.1927208,114.280062 46,124.997752 L201,124.997752 C179.786024,114.280062 152.847446,107.871766 123.5,107.871766 L123.5,107.871766 Z" id="Shape" fill="url(#linearGradient-2)"></path>
                <path d="M155.018969,132.110996 C143.095075,132.110996 133.220489,140.938787 131.51657,152.396849 C126.220603,151.222526 120.738658,151.215441 115.440921,152.370281 C113.613016,141.055688 103.805736,132.37668 91.982802,132.37668 C78.8651011,132.37668 68.1916924,143.050089 68.1916924,156.16779 C68.1916924,169.28549 78.8633299,179.958899 91.982802,179.958899 C103.956291,179.958899 113.86453,171.058488 115.508228,159.531348 C120.765227,158.119681 126.298537,158.140936 131.54668,159.596883 C133.330305,170.962842 143.162381,179.693215 155.02074,179.693215 C168.138441,179.693215 178.81185,169.021578 178.81185,155.902106 C178.808308,142.784405 168.13667,132.110996 155.018969,132.110996 Z M91.9810307,173.570086 C82.3685864,173.570086 74.5769626,165.778463 74.5769626,156.166018 C74.5769626,146.553574 82.3685864,138.76195 91.9810307,138.76195 C101.593475,138.76195 109.385099,146.553574 109.385099,156.166018 C109.385099,165.778463 101.593475,173.570086 91.9810307,173.570086 Z M155.018969,173.306174 C145.406525,173.306174 137.614901,165.51455 137.614901,155.902106 C137.614901,146.289661 145.406525,138.498038 155.018969,138.498038 C164.631414,138.498038 172.423037,146.289661 172.423037,155.902106 C172.421266,165.51455 164.629642,173.306174 155.018969,173.306174 Z" id="Combined-Shape" fill="#647CE8" opacity="0.400000006"></path>
            </g>
        </g>
    </g>
</svg>

<?xml version="1.0" encoding="utf-8"?>
<!-- Generator: Adobe Illustrator 23.0.0, SVG Export Plug-In . SVG Version: 6.00 Build 0)  -->
<svg version="1.1" id="Layer_1" xmlns="http://www.w3.org/2000/svg" xmlns:xlink="http://www.w3.org/1999/xlink" x="0px" y="0px"
	 viewBox="0 0 247 247" style="enable-background:new 0 0 247 247;" xml:space="preserve">
<style type="text/css">
	.st0{opacity:0.5;fill:#DEE2E6;enable-background:new    ;}
	.st1{fill:url(#Shape_1_);}
	.st2{display:none;opacity:0.4;fill:#10263E;enable-background:new    ;}
	.st3{opacity:0.5;fill:#F79420;enable-background:new    ;}
</style>
<title>backup-warning</title>
<desc>Created with Sketch.</desc>
<g id="Page-1">
	<g id="backup-warning">
		<g id="Onboarding">
			<g id="_x30_.5.a.1-_x2013_-Backup-Warning">
				<g id="being-watched">
					<path id="Oval-2" class="st0" d="M123.5,247c68.2,0,123.5-55.3,123.5-123.5S191.7,0,123.5,0S0,55.3,0,123.5S55.3,247,123.5,247
						z"/>
					
						<linearGradient id="Shape_1_" gradientUnits="userSpaceOnUse" x1="-363.1387" y1="837.8501" x2="-363.1387" y2="836.85" gradientTransform="matrix(155 0 0 -79.9977 56410 67071.0859)">
						<stop  offset="0" style="stop-color:#F79420;stop-opacity:0.5"/>
						<stop  offset="1" style="stop-color:#F89621"/>
					</linearGradient>
					<path id="Shape" class="st1" d="M157.7,46.9c-0.3-1.1-1.5-1.9-2.7-1.9l-40.9,8.1l-22.3-7.9c-1.2,0-2.4,0.9-2.7,2L74.4,96.6
						h98.2L157.7,46.9L157.7,46.9z M123.5,107.9c-29.3,0-56.3,6.4-77.5,17.1h155C179.8,114.3,152.8,107.9,123.5,107.9L123.5,107.9z"
						/>
					<path id="Combined-Shape" class="st2" d="M155,132.1c-11.9,0-21.8,8.8-23.5,20.3c-5.3-1.2-10.8-1.2-16.1,0
						c-1.8-11.3-11.6-20-23.5-20c-13.1,0-23.8,10.7-23.8,23.8S78.8,180,91.9,180c12,0,21.9-8.9,23.5-20.4c5.3-1.4,10.8-1.4,16,0.1
						c1.8,11.4,11.6,20.1,23.5,20.1c13.1,0,23.8-10.7,23.8-23.8C178.8,142.8,168.1,132.1,155,132.1z M92,173.6
						c-9.6,0-17.4-7.8-17.4-17.4s7.8-17.4,17.4-17.4s17.4,7.8,17.4,17.4S101.6,173.6,92,173.6z M155,173.3
						c-9.6,0-17.4-7.8-17.4-17.4c0-9.6,7.8-17.4,17.4-17.4s17.4,7.8,17.4,17.4S164.6,173.3,155,173.3z"/>
					<path id="Combined-Shape_1_" class="st3" d="M155,132.1c-11.9,0-21.8,8.8-23.5,20.3c-5.3-1.2-10.8-1.2-16.1,0
						c-1.8-11.3-11.6-20-23.5-20c-13.1,0-23.8,10.7-23.8,23.8S78.8,180,91.9,180c12,0,21.9-8.9,23.5-20.4c5.3-1.4,10.8-1.4,16,0.1
						c1.8,11.4,11.6,20.1,23.5,20.1c13.1,0,23.8-10.7,23.8-23.8C178.8,142.8,168.1,132.1,155,132.1z M92,173.6
						c-9.6,0-17.4-7.8-17.4-17.4s7.8-17.4,17.4-17.4s17.4,7.8,17.4,17.4S101.6,173.6,92,173.6z M155,173.3
						c-9.6,0-17.4-7.8-17.4-17.4c0-9.6,7.8-17.4,17.4-17.4s17.4,7.8,17.4,17.4S164.6,173.3,155,173.3z"/>
				</g>
			</g>
		</g>
	</g>
</g>
</svg>
